X: 127
T:Teetotaller's Reel
M:4/4
L:1/8
Z:abc by Bruce Osborne - bosborne@kos.net
K:G
(3DEF|G2 GF GABc|d2 eB dcAc|BEED EFGA|BGAF GFED|!
G2 GF GABc|d2 eB dcAc|BEED EFGA|BGAF G2:|!
|:GA|Bee_e =e2 =ef|geaf gfed|Bdd^c d2 de|fdfa gfed|!
Bee_e =e2 =ef|geaf gfed|BEED EFGA|BGAF G2:|!
